X:1
T:la Rose
T:la Rose
T:M. Giuliani
T:Op. 46 No. 9
C:M. Giuliani
%%score ( 1 2 3 )
L:1/8
Q:1/4=80
M:2/4
K:A
V:1 treble-8 nm="Classical Guitar" snm="Guit."
V:2 treble-8 
V:3 treble-8 
V:1
"^Andante grazioso"!p!!<(! [Ec]2 [^Ec]2!<)! | c3/2d/4c/4 BA | [EG][GB][Ac]>[Bd] | [Bd]2 [Ac] z | %4
!mf! ec/>A/ ed/>B/ | e/c/a/g/{/g} f/e/{/e}d/c/ |!p! BBBB | B/{/^d}e/{/^A}B/{/^^F}G/{/^D} E z | %8
!mf! z/ E/=A/c/ z/ ^E/A/c/ | c/B/^A/B/ (d/c/)B/=A/ | A/G/f/e/ e/[GB]/[Ac]/[Bd]/ | [Bd]2 [Ac] z | %12
!f! e^d/4e/4{/g}f/4e/4 e/(d'/4b/4)g/4e/4f/4=d/4 | %13
!>(! [Ac]/ z3/4!>)! A/4c/4(e/4 a/)"_dol."(g/4f/4)e/4d/4(c/4!p!B/4) | %14
 [CA][CA]{/c} [DB]/>[CA]/[DB]/>[Ec]/ | [CA]2 [fa][fa] | g/^d'/e'/g/ f/c'/=d'/f/ | %17
 e2!sfz! e/(c'/4b/4)a/4(g/4f/4)e/4 | d/(g/b/)d/ c/(a/4g/4){/g}f/4e/4{/e}d/4c/4 | %19
 [^^F^A][GB]!f! (6:4:6[GB]/!>(!c/^d/e/f/g/!>)! | (6:4:6a/f/^d/=c/B/A/ (6:4:6G/B/e/(g/f/)e/ | %21
 (6:4:6B/^d/f/b/{/^d'}c'/b/ (6:4:6(b/g/)"_dol.".e/(^b/g/).e/ | %22
 (6:4:6(^b/c'/)(g/a/)c/f/ (6:4:6G/B/e/^D/B/f/ | (6:4:6^^f/B/^D/E/B/g/ (6:4:6(b/e'/)^d'/=d'/c'/^b/ | %24
 (6:4:6(^d'/c'/)(g/a/)c/f/ (6:4:6G/B/e/F/A/^d/ | %25
 (6:4:6G,/B/!p!=d/e/(g/f/) (6:4:6.e/(b/a/).g/(d'/c'/) | %26
 (6:4:6.b/(a/g/).f/.e/.^d/ (6:4:6.e/(^e/g/).f/.=d/.B/ | (6:4:6F,/B,/D/A/D/B,/ !fermata![B,DG]2 | %28
!mf! z/ c/e/a/ c'/b/a/g/ | g/f/^e/f/ d'/c'/b/a/ | (a/g/)f/=e/ e/g/b/d'/ | c'/e'/c'/a/ g/e/d/B/ | %32
 z/ C/E/A/ z/ D/G/B/ | z/ E/A/c/ ^d/e/d/c/ | c/B/^A/B/ g/f/d/B/ | z/ C/E/A/ G/E/D/B,/ | %36
 z/!>(! e/f/g/ a/^a/b/c'/!>)! | z/!>(! f/g/=a/ ^a/b/c'/d'/!>)! | d'/c'/b/a/ g/b/e'/d'/ | %39
 c'/(e'/c'/)a/ g/e/d/B/ | z/ c'/b/a/ a/g/f/e/ | e/^d/=d/c/ ^A/B/d/f/ | (^d/e/)c/A/ (e/d/)=d/B/ | %43
 A2 z2 | (g/4a/4)=g/4e/4c ^g/4a/4=g/4e/4c | (^g/4a/4)f/4d/4A z/4 (^e/4f/4)=e/4(d/4c/4)B/4A/4 | %46
 z/4 G/4B/4d/<(f/e/4) z/4 G/4B/4d/<(=f/e/4) | [Ac]2 z2 | %48
 (b/4a/4)=g/4e/4 (d/4c/4)_B/4A/4 (=b/4a/4)g/4e/4 (d/4c/4)(_B/4A/4) | %49
 (b/4a/4)f/4d/4A z/4 ^e/4f/4=e/4(d/4c/4)B/4A/4 | ^G G/4B/4(d/4B/4) G G/4B/4(d/4B/4) | %51
!p! A"_cresc.""_poco"A ce | a"_a"c' (e'/4c'/4)"_poco"a/4c'/4e/4a/4c/4e/4 |!f! A2 AA | A4 |] %55
V:2
 A,2 A,2 | [DF]2 z2 | E,2 z2 | A,2 z2 | A,2 G,2 | A,2 z2 | [DF]2 [^DA]2 | [E,EG]2 z2 | A,2 A,2 | %9
 [DF]2 z2 | [E,D]2 z2 | z/ E,/F,/G,/ A, z | [A,Ac] z [G,B=d] z | z/4 E,/4(A,/4C/4)E/4 z3/4 z2 | %14
 E,2 E,2 | A,A,A,A, | A,A,A,A, | A,A, A, z | E,2 A,2 | E,2 [E,E]2 | F,2 E,2 | B2 E,2 | A,2 G^D | %23
 (3:2:2z ^D/ E E,2 | A,2 GF | G,2 z2 | z4 | F,2 E,2 | A,2 z2 | D2 z2 | E,2 z2 | A,2 E,2 | A,2 B,2 | %33
 C2 z2 | [DF]2 z2 | E,2 E,2 | A,2 z2 | D2 z2 | E,2 z2 | A,2 E,2 | A,2 B,2 | C2 D2 | E,2 E,2 | %43
 A,!p!A,A,A, | B,[A,=G] A,[A,G] | A,[A,F] A,A, | A,A, A,A, | A,A, A,A, | A,[A,G] A,[A,G] | %49
 A,[A,F] A,A, | z/4 A,/4(D/4=F/4) z z/4 A,/4(D/4F/4) z | %51
 A/4A,/4C/4E/4A/4C/4E/4A/4 c/4E/4A/4c/4e/4A/4c/4e/4 | a/4c/4e/4a/4c'/4e/4a/4c'/4 z/ a/e/c/ | %53
 A2 [A,CE][A,CE] | [A,CE]4 |] %55
V:3
 x4 | x4 | x4 | x4 | x4 | x4 | x4 | x4 | x4 | x4 | x4 | x4 | x4 | x4 | x4 | x4 | e>e d>d | %17
 c2 [ce] z | B>B A2 | x4 | x4 | x4 | x4 | x4 | x4 | x4 | x4 | x4 | x4 | x4 | x4 | x4 | x4 | x4 | %34
 x4 | x4 | x4 | x4 | x4 | x4 | x4 | x4 | x4 | x4 | x4 | x4 | x4 | x4 | x4 | x4 | x4 | x4 | x4 | %53
 x4 | x4 |] %55

